X: 18631
T: I Wish You A Merry New Year
R: jig
M: 6/8
K: Gmajor
|:E|D2 G GFG|ABA AA/B/c|BAG c2 B|B2 A AFE|
DGG GDG|A2 A ABc|BB/A/G AGF|F3 G2:|
|:c|Bcd dcB|ABc cdc|cGG GFG|
[1 B3 A2 c|BB/c/d d^cd|AA/B/c cdc|cGE AD/E/F|F3 G2:|
[2 B2 A AFE|D2 G GDG|A^GA AA/B/c|BAG AGF|F3 G2||

